static/img/kroki/e2daa0bcb9de46e100025f033e585aef.svg

<?xml version="1.0" encoding="us-ascii" standalone="no"?><svg xmlns="http://www.w3.org/2000/svg" xmlns:xlink="http://www.w3.org/1999/xlink" contentStyleType="text/css" height="152px" preserveAspectRatio="none" style="width:657px;height:152px;" version="1.1" viewBox="0 0 657 152" width="657px" zoomAndPan="magnify"><defs/><g><!--class gcp_router--><g id="elem_gcp_router"><rect codeLine="22" fill="#3D176E" height="39.7891" id="gcp_router" rx="2.5" ry="2.5" style="stroke:#000D19;stroke-width:0.5;" width="131" x="7" y="106.79"/><ellipse cx="22" cy="126.6845" fill="#ADD1B2" rx="11" ry="11" style="stroke:#181818;stroke-width:1.0;"/><path d="M24.9688,132.3252 Q24.3906,132.622 23.75,132.7627 Q23.1094,132.9189 22.4063,132.9189 Q19.9063,132.9189 18.5781,131.2783 Q17.2656,129.622 17.2656,126.497 Q17.2656,123.372 18.5781,121.7158 Q19.9063,120.0595 22.4063,120.0595 Q23.1094,120.0595 23.75,120.2158 Q24.4063,120.372 24.9688,120.6689 L24.9688,123.3877 Q24.3438,122.8095 23.75,122.5439 Q23.1563,122.2627 22.5313,122.2627 Q21.1875,122.2627 20.5,123.3408 Q19.8125,124.4033 19.8125,126.497 Q19.8125,128.5908 20.5,129.6689 Q21.1875,130.7314 22.5313,130.7314 Q23.1563,130.7314 23.75,130.4658 Q24.3438,130.1845 24.9688,129.6064 L24.9688,132.3252 Z " fill="#000000"/><text fill="#D9B8FF" font-family="Helvetica" font-size="17" lengthAdjust="spacing" textLength="89" x="41" y="132.5698">gcp_router</text></g><!--class gcp_target_vpn_gateway--><g id="elem_gcp_target_vpn_gateway"><rect codeLine="24" fill="#3D176E" height="39.7891" id="gcp_target_vpn_gateway" rx="2.5" ry="2.5" style="stroke:#000D19;stroke-width:0.5;" width="251" x="173" y="106.79"/><ellipse cx="188" cy="126.6845" fill="#ADD1B2" rx="11" ry="11" style="stroke:#181818;stroke-width:1.0;"/><path d="M190.9688,132.3252 Q190.3906,132.622 189.75,132.7627 Q189.1094,132.9189 188.4063,132.9189 Q185.9063,132.9189 184.5781,131.2783 Q183.2656,129.622 183.2656,126.497 Q183.2656,123.372 184.5781,121.7158 Q185.9063,120.0595 188.4063,120.0595 Q189.1094,120.0595 189.75,120.2158 Q190.4063,120.372 190.9688,120.6689 L190.9688,123.3877 Q190.3438,122.8095 189.75,122.5439 Q189.1563,122.2627 188.5313,122.2627 Q187.1875,122.2627 186.5,123.3408 Q185.8125,124.4033 185.8125,126.497 Q185.8125,128.5908 186.5,129.6689 Q187.1875,130.7314 188.5313,130.7314 Q189.1563,130.7314 189.75,130.4658 Q190.3438,130.1845 190.9688,129.6064 L190.9688,132.3252 Z " fill="#000000"/><text fill="#D9B8FF" font-family="Helvetica" font-size="17" lengthAdjust="spacing" textLength="209" x="207" y="132.5698">gcp_target_vpn_gateway</text></g><!--class gcp_vpn_gateway--><g id="elem_gcp_vpn_gateway"><rect codeLine="26" fill="#3D176E" height="39.7891" id="gcp_vpn_gateway" rx="2.5" ry="2.5" style="stroke:#000D19;stroke-width:0.5;" width="191" x="459" y="106.79"/><ellipse cx="474" cy="126.6845" fill="#ADD1B2" rx="11" ry="11" style="stroke:#181818;stroke-width:1.0;"/><path d="M476.9688,132.3252 Q476.3906,132.622 475.75,132.7627 Q475.1094,132.9189 474.4063,132.9189 Q471.9063,132.9189 470.5781,131.2783 Q469.2656,129.622 469.2656,126.497 Q469.2656,123.372 470.5781,121.7158 Q471.9063,120.0595 474.4063,120.0595 Q475.1094,120.0595 475.75,120.2158 Q476.4063,120.372 476.9688,120.6689 L476.9688,123.3877 Q476.3438,122.8095 475.75,122.5439 Q475.1563,122.2627 474.5313,122.2627 Q473.1875,122.2627 472.5,123.3408 Q471.8125,124.4033 471.8125,126.497 Q471.8125,128.5908 472.5,129.6689 Q473.1875,130.7314 474.5313,130.7314 Q475.1563,130.7314 475.75,130.4658 Q476.3438,130.1845 476.9688,129.6064 L476.9688,132.3252 Z " fill="#000000"/><text fill="#D9B8FF" font-family="Helvetica" font-size="17" lengthAdjust="spacing" textLength="149" x="493" y="132.5698">gcp_vpn_gateway</text></g><!--class gcp_vpn_tunnel--><g id="elem_gcp_vpn_tunnel"><rect codeLine="28" fill="#3D176E" height="39.7891" id="gcp_vpn_tunnel" rx="2.5" ry="2.5" style="stroke:#000D19;stroke-width:0.5;" width="174" x="211.5" y="7"/><ellipse cx="226.5" cy="26.8945" fill="#ADD1B2" rx="11" ry="11" style="stroke:#181818;stroke-width:1.0;"/><path d="M229.4688,32.5352 Q228.8906,32.832 228.25,32.9727 Q227.6094,33.1289 226.9063,33.1289 Q224.4063,33.1289 223.0781,31.4883 Q221.7656,29.832 221.7656,26.707 Q221.7656,23.582 223.0781,21.9258 Q224.4063,20.2695 226.9063,20.2695 Q227.6094,20.2695 228.25,20.4258 Q228.9063,20.582 229.4688,20.8789 L229.4688,23.5977 Q228.8438,23.0195 228.25,22.7539 Q227.6563,22.4727 227.0313,22.4727 Q225.6875,22.4727 225,23.5508 Q224.3125,24.6133 224.3125,26.707 Q224.3125,28.8008 225,29.8789 Q225.6875,30.9414 227.0313,30.9414 Q227.6563,30.9414 228.25,30.6758 Q228.8438,30.3945 229.4688,29.8164 L229.4688,32.5352 Z " fill="#000000"/><text fill="#D9B8FF" font-family="Helvetica" font-size="17" lengthAdjust="spacing" textLength="132" x="245.5" y="32.7798">gcp_vpn_tunnel</text></g><!--link gcp_vpn_tunnel to gcp_router--><g id="link_gcp_vpn_tunnel_gcp_router"><path codeLine="30" d="M253.85,47.22 C214.23,64.36 162.1561,86.8862 122.5661,104.0262 " fill="none" id="gcp_vpn_tunnel-to-gcp_router" style="stroke:#1A83AF;stroke-width:2.0;"/><polygon fill="#1A83AF" points="117.06,106.41,126.9084,106.505,121.6484,104.4235,123.73,99.1635,117.06,106.41" style="stroke:#1A83AF;stroke-width:2.0;"/></g><!--link gcp_vpn_tunnel to gcp_target_vpn_gateway--><g id="link_gcp_vpn_tunnel_gcp_target_vpn_gateway"><path codeLine="31" d="M298.5,47.22 C298.5,64.36 298.5,83.27 298.5,100.41 " fill="none" id="gcp_vpn_tunnel-to-gcp_target_vpn_gateway" style="stroke:#1A83AF;stroke-width:2.0;"/><polygon fill="#1A83AF" points="298.5,106.41,302.5,97.41,298.5,101.41,294.5,97.41,298.5,106.41" style="stroke:#1A83AF;stroke-width:2.0;"/></g><!--link gcp_vpn_tunnel to gcp_vpn_gateway--><g id="link_gcp_vpn_tunnel_gcp_vpn_gateway"><path codeLine="32" d="M349.08,47.22 C393.96,64.36 453.5753,87.1281 498.4253,104.2681 " fill="none" id="gcp_vpn_tunnel-to-gcp_vpn_gateway" style="stroke:#1A83AF;stroke-width:2.0;"/><polygon fill="#1A83AF" points="504.03,106.41,497.0509,99.4607,499.3594,104.6251,494.1951,106.9336,504.03,106.41" style="stroke:#1A83AF;stroke-width:2.0;"/></g><!--SRC=[XT1HJy8m40VmTpv54vv9c4I15vEvXEWBCUARCSknNaV3rYxN0uB6x-u6Qce7s-lzV-tzsusMAB2i-2XABDT8Rk2ssbH0K8gOo1uIMrWIGwL0JQPXkB26Uy4IIXIFMEoHTGQXUDteR6lGEN7ZHG-GRNEoEoFFrpE1SNM4XZsL5E1Sp4nwlMFqoiZvUgPKACDBXnCPJU-mnIn9f1yo7ezbD0z9xwhET_-9bVv04VcVjhIChPgj5IVLsR8HNidMGt_pgnsVGKfjSd7hpLxEdSWW_PklDY3jeT4A2kUlSOo4beyL9grNuNmcrVGYVhg6i-RdH9vLQHtMN7mElhmX0-N8wRuoQGwC1pW6e3lXdJ5Od89WD7eRHl5i4Y_UH_VU-bxMBjHxnBFV]--></g></svg>

<svg xmlns="http://www.w3.org/2000/svg" width="657" height="152" viewBox="0 0 657 152"><rect width="131" height="39.789" x="7" y="106.79" fill="#3D176E" rx="2.5" ry="2.5" style="stroke:#000d19;stroke-width:.5"/><circle cx="22" cy="126.684" r="11" fill="#ADD1B2" style="stroke:#181818;stroke-width:1"/><path d="M24.969 132.325q-.578.297-1.219.438-.64.156-1.344.156-2.5 0-3.828-1.64-1.312-1.657-1.312-4.782t1.312-4.781q1.328-1.656 3.828-1.656.703 0 1.344.156.656.156 1.219.453v2.719q-.625-.579-1.219-.844-.594-.281-1.219-.281-1.343 0-2.031 1.078-.687 1.062-.687 3.156t.687 3.172q.688 1.062 2.031 1.062.625 0 1.219-.265.594-.281 1.219-.86z"/><text x="41" y="132.57" fill="#D9B8FF" font-family="Helvetica" font-size="17" textLength="89">gcp_router</text><rect width="251" height="39.789" x="173" y="106.79" fill="#3D176E" rx="2.5" ry="2.5" style="stroke:#000d19;stroke-width:.5"/><circle cx="188" cy="126.684" r="11" fill="#ADD1B2" style="stroke:#181818;stroke-width:1"/><path d="M190.969 132.325q-.578.297-1.219.438-.64.156-1.344.156-2.5 0-3.828-1.64-1.312-1.657-1.312-4.782t1.312-4.781q1.328-1.656 3.828-1.656.703 0 1.344.156.656.156 1.219.453v2.719q-.625-.579-1.219-.844-.594-.281-1.219-.281-1.344 0-2.031 1.078-.687 1.062-.687 3.156t.687 3.172q.688 1.062 2.031 1.062.625 0 1.219-.265.594-.281 1.219-.86z"/><text x="207" y="132.57" fill="#D9B8FF" font-family="Helvetica" font-size="17" textLength="209">gcp_target_vpn_gateway</text><rect width="191" height="39.789" x="459" y="106.79" fill="#3D176E" rx="2.5" ry="2.5" style="stroke:#000d19;stroke-width:.5"/><circle cx="474" cy="126.684" r="11" fill="#ADD1B2" style="stroke:#181818;stroke-width:1"/><path d="M476.969 132.325q-.578.297-1.219.438-.64.156-1.344.156-2.5 0-3.828-1.64-1.312-1.657-1.312-4.782t1.312-4.781q1.328-1.656 3.828-1.656.703 0 1.344.156.656.156 1.219.453v2.719q-.625-.579-1.219-.844-.594-.281-1.219-.281-1.344 0-2.031 1.078-.687 1.062-.687 3.156t.687 3.172q.688 1.062 2.031 1.062.625 0 1.219-.265.594-.281 1.219-.86z"/><text x="493" y="132.57" fill="#D9B8FF" font-family="Helvetica" font-size="17" textLength="149">gcp_vpn_gateway</text><rect width="174" height="39.789" x="211.5" y="7" fill="#3D176E" rx="2.5" ry="2.5" style="stroke:#000d19;stroke-width:.5"/><circle cx="226.5" cy="26.895" r="11" fill="#ADD1B2" style="stroke:#181818;stroke-width:1"/><path d="M229.469 32.535q-.578.297-1.219.438-.64.156-1.344.156-2.5 0-3.828-1.64-1.312-1.657-1.312-4.782t1.312-4.781q1.328-1.656 3.828-1.656.703 0 1.344.156.656.156 1.219.453v2.719q-.625-.578-1.219-.844-.594-.281-1.219-.281-1.344 0-2.031 1.078-.687 1.062-.687 3.156t.687 3.172q.688 1.062 2.031 1.062.625 0 1.219-.265.594-.281 1.219-.86z"/><text x="245.5" y="32.78" fill="#D9B8FF" font-family="Helvetica" font-size="17" textLength="132">gcp_vpn_tunnel</text><path fill="none" d="M253.85 47.22c-39.62 17.14-91.694 39.666-131.284 56.806" style="stroke:#1a83af;stroke-width:2"/><path fill="#1A83AF" d="m117.06 106.41 9.848.095-5.26-2.081 2.082-5.26z" style="stroke:#1a83af;stroke-width:2"/><path fill="none" d="M298.5 47.22v53.19" style="stroke:#1a83af;stroke-width:2"/><path fill="#1A83AF" d="m298.5 106.41 4-9-4 4-4-4z" style="stroke:#1a83af;stroke-width:2"/><path fill="none" d="M349.08 47.22c44.88 17.14 104.495 39.908 149.345 57.048" style="stroke:#1a83af;stroke-width:2"/><path fill="#1A83AF" d="m504.03 106.41-6.98-6.95 2.31 5.165-5.165 2.309z" style="stroke:#1a83af;stroke-width:2"/></svg>
